!!!!SEGMENT: pl-wumfc--r282--003-004_paderewski-ignacy-jan--exercises-3-exercise-4.krn
!!!cenid: 18xx:3199
!!!COM: Paderewski, Ignacy Jan
!!!COM-rismid: pe30029943
!!!CDT: 1860/11/18-1941/06/29
!!!CNT: Polish
!!!GTL: [Exercises 3]
!!!OTL: [Exercise 4]
!!!OMV: 004
!!!PDT:
!!!AGN:
!!!SMS-siglum: PL-Wumfc
!!!SMS-shelfmark: R282
!!!SMS-shelfwork: 003-004 G
!!!SMS-variant:
!!!SMS-altvar:
!!!NIFC-rismid: 1001158933
!!!URL-scan: http://repozytorium.nifc.pl/skany/pl-wumfc--r282
!!!ONB-nifc: UWAGA: druga grupa ćwiczeń od skanu 0011, prawa strona, 3 system. Nr 003 i 004 nienumerowane – skan 0012, lewa strona. Nr 010 nienumerowany – skan 0014, 3 pierwsze systemy
**kern	**kern
*part1	*part1
*staff2	*staff1
*>[A,A,B]	*>[A,A,B]
*>A	*>A
*I"[Pianoforte]	*
*Ipiano	*
*ICklav	*
*clefF4	*clefG2
*k[b-]	*k[b-]
*F:	*F:
2.c\	4ee\
.	4dd\
.	[>4ee\
=1	=1
2.A\	4ee\]
.	4ff\
.	[>4a/
2.c\	4a/]
.	4g/
.	[>4a/
=2	=2
*	*^
2.d\	4a/]	2ryy
.	4b- 4g/	.
.	[>4ff@ 4dd@/	[>4d/
2.c\	4ff@/]	4d/]
.	4ee@/	4e/
.	[>4g/	4ryy
*	*v	*v
!!LO:LB:g=original
=3	=3
2.B-\	4g/]
.	4d/
.	[>4dd/
2.A\	4dd/]
.	4cc/
.	[>4ff/
=4	=4
1.G	4ff/]
.	4ee/
.	4dd/
.	4ee/
.	4dd/
.	4ee/
=5	=5
2.F;\	2.ff;/
2.A\	4cc/
.	4dd/
.	[>4ee/
=6	=6
2.G\	4ee/]
.	4dd/
.	[>4ee/
2.F\	4ee/]
.	4dd/
.	[>4ff/
=7	=7
2.G\	4ff/]
.	4ee/
.	[>4dd/
2.A\	4dd/]
.	4cc/
.	[>4a/
=8	=8
2.B-\	4a/]
.	4g/
.	[>4gg/
2.A\	4gg/]
.	4ff/
.	[>4cc/
!!LO:LB:g=original
=9	=9
1.G	4cc/]
.	4b-/
.	4cc/
.	2.dd;/
=10:|!	=10:|!
*>B	*>B
2.G\	4b-/
.	4a/
.	[>4g/
2.G\	4g/]
.	4d/
.	[>4e/
=11	=11
2.A\	4e/]
.	4f/
.	[>4cc/
2.c\	4cc/]
.	4a/
.	[>4g/
=12	=12
2.c\	4g/]
.	4cc/
.	[>4a/
2.Bn\	4a/]
.	4g/
.	4dd/
=13	=13
2.c;\	2.cc;/
2.c\	4ee/
.	4dd/
.	[>4ee/
=14	=14
*	*^
2.A\	4ee/]	2ryy
.	4ff/	.
.	[>4ee/	4cc@/
2.F\	4ee/]	4ryy
.	4dd/	2ryy
.	[>4cc/	.
*	*v	*v
!!LO:LB:g=original
=15	=15
2.d\	4cc/]
.	4b-/
.	[>4a/
2.B-\	4a/]
.	4g/
.	[>4dd/
=16	=16
2.A\	4dd/]
.	4cc/
.	[>4f/
2.G\	4f/]
.	4e/
.	4g/
=17	=17
2.F;\	2.a;/
==	==
*-	*-
!!!system-decoration: (s1,s2)
!!!RDF**kern: > = above
!!!RDF**kern: @ = marked note, color=gray
!!!ENC: Filip Voros
!!!END: 2021-11-13
!!!ENC: Andrzej Kubiczek
!!!END: 2021-11-16
